X:1
T:Title
%%score { ( 1 3 ) | ( 2 4 ) }
L:1/8
Q:1/4=100
M:6/8
K:G
V:1 treble nm="Grand Piano"
V:3 treble 
V:2 bass 
V:4 bass 
V:1
 E2 E [^DA]3 | [EG]2 [EG] [=Fc]3 | [Ec][DEB][CEA] [B,DG]2 [A,DF] | D3- [DG]3 | E3 [^DA]3 | %5
w: J.~Barnby * *|||||
[M:15/16] [EG]->[EG]EA3/2- A3 |[M:3/4] dB [CGc] [EGA]2 [DFB] | [C=FA]3 .G3 | GB AG AG | %9
w: ||||
 Gc [C^DA] [CEG]3 | [B,=FG][FB] [A,FA][B,G] A[B,FG] | E-[Ec] [A,^DF] [G,EG]3 | %12
w: |||
 [Cc][CEc] [EAc] [E^Gc]2 [DGB] |[M:15/16] A3- [^DA]3- [D-A]D/ |[M:3/4] G2 GG- G/A/G | %15
w: |||
 G2 G[=FG]- [FG]/[FA]/[FG] | c3- [=Fc-]3 | [Ec]6 |] %18
w: |||
V:2
 [C,G,]2 [C,G,] [C,F,]3 | [C,G,]2 [C,G,] [C,A,]3 | [C,G,]C,C, D,2 D, | z3 .B,3 | [C,G,]3 [C,F,]3 | %5
[M:15/16] [C,G,]->[C,G,][C,C][K:treble][CDF]3/2- [CDF]3 |[M:3/4] [B,DG][G,DG][K:bass] E, C,2 D, | %7
 z2 z .B,3 | [B,D=F][G,B,F] [A,CF]F- [A,CF][B,DF] | [CE]2[K:bass] z2 z2 | G,,[G,,G,] .G,,2 A,G,, | %11
 z G, C, C,3 | [A,,A,]A,, C, E,2 E, |[M:15/16] =F,3 ^F,3/2- F,3 | %14
[M:3/4] [G,CE]2 [G,CE][=F,B,D]- [F,B,D]/[F,B,D]/[F,B,D] | %15
 [E,C]2 [E,C][D,B,]- [D,B,]/[D,B,]/[^C,_B,] | _B,3 A,2 ^G, | G,6 |] %18
V:3
 x6 | x6 | x6 | [CA]3 z3 | x6 |[M:15/16] x15/2 |[M:3/4] x6 | x6 | x6 | x6 | z2 z .=F3 | %11
 .[CG]2 z2 z2 | x6 |[M:15/16] C3/2-C3/2-C3/2- C3 |[M:3/4] x6 | x6 | E4 z2 | x6 |] %18
V:4
 x6 | x6 | x6 | G,6 | x6 |[M:15/16] x3[K:treble] x9/2 |[M:3/4] x2[K:bass] x4 | G,6 | %8
 z2 z [B,D] z2 | z[K:bass] E, F, G,3 | z2 z .G,,3 | C,2 z2 z2 | x6 |[M:15/16] x15/2 |[M:3/4] x6 | %15
 x6 | C,6- | C,6 |] %18

